X: 2201
T: Browns Reel
%R: reel
B: Niel Gow & Sons "Complete Repository" v.2 p.20 #1
Z: 2021 John Chambers <jc:trillian.mit.edu>
M: C|
L: 1/8
K: C
% - - - - - - - - - -
V: 1 staves=2
e |\
Tc2ec dBAG | (A/B/c) TB>A GEE2 |\
(c/d/e/f/) ge dBAG | (A/B/c) TB>A GEE :|\
(f |\
e)>cgc dBgB | cAfA BG-G_B |
AFcF GEcE | FD (G/F/E/D/) ECC>f ||\
egcg dgBg | caAc BG-G_B |\
AcFc GcEc | AaTg>f ec-c |]
% - - - - - - - - - -
% Voice 2 preserves the staff layout in the book.
V: 2 clef=bass middle=d
z |\
[c'2c2][c'2c2] [g2G2][g2G2] | [a2A2][b2B2] [c'2c2][c'2c2] |\
[e'2e2][c'2c2] [b2B2][e2E2] | [f2F2][g2G2] [c2C2][cC] :|\
z |\
[c'2c2][c'2c2] [b2B2][b2B2] | [a2A2][a2A2] [g2G2][e2E2] |
[f2F2][f2F2] [e2E2][e2E2] | [d2D2][B2B,2] [c2C2][c2C2] ||\
[c'2c2][c'2c2] [b2B2][b2B2] | [a2A2][^f2^F2] [g2G2][e2E2] |\
[=f2=F2][f2F2] [e2E2][e2E2] | [f2F2][g2G2] [c2C2][cC] |]


